X:223
T:Bridal March (from "Lohengrin")
C:Wagner
M:4/4
F:http://blackrosetheband.googlepages.com/ABCTUNES.ABC May 2009
R:
K:G
"G"D4 G3G|G8|D4 "D"A3F|"G"G8|D4 G3c|"C"c4 B3A|"G"G4 F3G|"D"A8|
"G"D4 G3G|G8|D4 "D"A3F|"G"G8|D4 G3B|"Bm"d4 B3G|"C"E4 "D"A3F|"G"G8||
"C"c4 B3A|E4 E4|"D"F4 G3A|A8|"C"c4 B3A|E4 E4|E4 "D"F3^G|"E"^G8||
"G"D4 G3G|G8|D4 "D"A3F|"G"G8|D4 G3B|"Bm"d4 B3G|"C"E8| e8|"D"d4c4|B4A4|"G"G8|
